X:1
T:Thomas Tallis, 1567
T:Matthew Parker, 1567 86. 86.
T:Veni Creator No copyright. Transcribed from The Whole Psalter Translated, 1567.
%%score [ 1 2 3 4 ]
L:1/8
M:12/2
K:C
V:1 treble nm="Meane" snm="M."
V:2 treble nm="Counter\nTenor" snm="C."
V:3 treble-8 nm="Tenor" snm="T."
V:4 bass nm="Bass" snm="B."
V:1
 z2 C2 E2 F2 G2 G2 A2 A2 G2 G2 c2 B2 A2 A2 G4 || z2 C2 E2 F2 G2 G2 A2 A2 G2 C2 F2 E2 D2 D2 C16 || %2
V:2
 z2"^1. Come Holy Ghost, eternal God,  Which dost from God proceed:   The Father first, and eke the Son,  One God as we do read.\n" c2 c2 c2 d2 e2 f2 f2 e2 e2 e2 d2 d2 d2 B4 || %1
 z2 c2 c2 c2 B2 G2 c2 c2 c2 c2 c2 c2 c2 B2 c16 || %2
V:3
 z2 C2 G2 A2 B2 G2 c2 c2 c2 C2 E2 G2 G2 ^F2 G4 || z2 G2 G2 C2 D2 E2 F2 F2 E2 E2 A2 G2 G2 G2 G16 || %2
V:4
 z2 C,2 C,2 A,,2 G,,2 C,2 F,,2 F,,2 C,2 C,2 C,2 G,,2 D,2 D,2 G,,4 || %1
 z2 C,2 C,2 A,,2 G,,2 C,2 F,,2 F,,2 C,2 C,2 F,,2 C,2 G,,2 G,,2 C,16 || %2

